resources/svg/minor-store.svg

<svg xmlns="http://www.w3.org/2000/svg" viewBox="0 0 20 20" fill="currentColor"><path d="M2.55381 3.1277L2.01228 6.3524C1.99069 6.48128 1.99763 6.61327 2.03263 6.73921C2.06762 6.86516 2.12984 6.98203 2.21494 7.08172C2.30005 7.1814 2.40601 7.26151 2.52546 7.31647C2.64491 7.37144 2.77499 7.39994 2.90666 7.4H3.71668C3.96949 7.39999 4.21731 7.33009 4.43232 7.19815C4.64734 7.0662 4.82105 6.87743 4.93398 6.653L5.46462 5.6L5.99526 6.653C6.10818 6.87743 6.28189 7.0662 6.49691 7.19815C6.71192 7.33009 6.95974 7.39999 7.21255 7.4H8.25206C8.50488 7.39999 8.75269 7.33009 8.96771 7.19815C9.18272 7.0662 9.35644 6.87743 9.46936 6.653L10 5.6L10.5306 6.653C10.6436 6.87743 10.8173 7.0662 11.0323 7.19815C11.2473 7.33009 11.4951 7.39999 11.7479 7.4H12.7874C13.0403 7.39999 13.2881 7.33009 13.5031 7.19815C13.7181 7.0662 13.8918 6.87743 14.0047 6.653L14.5354 5.6L15.066 6.653C15.1789 6.87743 15.3527 7.0662 15.5677 7.19815C15.7827 7.33009 16.0305 7.39999 16.2833 7.4H17.0933C17.225 7.39994 17.3551 7.37144 17.4745 7.31647C17.594 7.26151 17.7 7.1814 17.7851 7.08172C17.8702 6.98203 17.9324 6.86516 17.9674 6.73921C18.0024 6.61327 18.0093 6.48128 17.9877 6.3524L17.4462 3.1277C17.3932 2.81249 17.2291 2.52616 16.9833 2.31967C16.7375 2.11317 16.4258 1.9999 16.1037 2H3.89628C3.57419 1.9999 3.26251 2.11317 3.01669 2.31967C2.77086 2.52616 2.60684 2.81249 2.55381 3.1277Z" fill="#5C5F62"/><path d="M17 16.65V9H3V16.65C3 17.008 3.14146 17.3514 3.39327 17.6046C3.64508 17.8578 3.9866 18 4.34271 18H7.0162V12H12.9838V18H15.6573C16.0134 18 16.3549 17.8578 16.6067 17.6046C16.8585 17.3514 17 17.008 17 16.65Z" fill="#5C5F62"/></svg>

<svg xmlns="http://www.w3.org/2000/svg" viewBox="0 0 20 20" fill="currentColor"><path d="m2.554 3.128-.542 3.224a.893.893 0 0 0 .513.964c.12.055.25.084.382.084h.81a1.369 1.369 0 0 0 1.217-.747l.53-1.053.531 1.053a1.354 1.354 0 0 0 1.218.747h1.04a1.369 1.369 0 0 0 1.216-.747l.531-1.053.53 1.053a1.355 1.355 0 0 0 1.218.747h1.04a1.369 1.369 0 0 0 1.217-.747l.53-1.053.531 1.053a1.354 1.354 0 0 0 1.217.747h.81a.913.913 0 0 0 .692-.318.898.898 0 0 0 .203-.73l-.542-3.224a1.347 1.347 0 0 0-.463-.808 1.367 1.367 0 0 0-.88-.32h-12.207c-.322 0-.633.113-.88.32-.245.206-.41.492-.462.808Z"/><path d="M17 16.65v-7.65h-14v7.65c0 .358.141.701.393.955.252.253.594.395.95.395h2.673v-6h5.968v6h2.673c.356 0 .698-.142.95-.395.252-.254.393-.597.393-.955Z"/></svg>
